X: 08040
T: FOGG'S FAVORITE
C: Bob McQuillen 30 Mar 91
B: Bob's Note Book 8 #40
R: reel
Z: 2005/2021 John Chambers <jc:trillian.mit.edu>
M: C
L: 1/8
K: G
Bc \
| d2ga gdBc | d2ga g2Bc | d2ga gedB | c2A2 A2Bc |\
| d2ga gdBc | dega bgdc | BGBd gedc | B2G2 G2 :|
|: GA \
| _B2Bc dcBc | dgg=f g2ga | _bag=f gfd_B | c_BG2 G2=BA |\
| G2GA BGBc | dgdc BGAG | =FGAc dedc | B2G2 G2 :|
%%begintext align
%% One of the fringe benefits of being at the Ralph Page Legacy Weekend is
%% getting to visit with George Fogg. George is from Boston, and he's a really
%% fine dance leader, specializing in English dances. A jolly man, he has
%% great energy, and it's always a pleasure to work for him. I hope it happens
%% again real soon, George!
%%endtext

% %newpage
% %vskip 5.6cm
% %center --- 08041 spacer ---
% %sep 1 1 500

%%sep 1 1 500

%%sep 1 1 500

